icons/run.svg

<svg width="24" height="24" viewBox="0 0 24 24" fill="none" xmlns="http://www.w3.org/2000/svg">
<path d="M13 5C13.5523 5 14 4.55228 14 4C14 3.44772 13.5523 3 13 3C12.4477 3 12 3.44772 12 4C12 4.55228 12.4477 5 13 5Z" stroke="#1E293B" stroke-width="2" stroke-linecap="round" stroke-linejoin="round"/>
<path d="M4 17L9 18L9.75 16.5" stroke="#1E293B" stroke-width="2" stroke-linecap="round" stroke-linejoin="round"/>
<path d="M15 21V17L11 14L12 8" stroke="#1E293B" stroke-width="2" stroke-linecap="round" stroke-linejoin="round"/>
<path d="M7 12V9L12 8L15 11L18 12" stroke="#1E293B" stroke-width="2" stroke-linecap="round" stroke-linejoin="round"/>
</svg>

<svg
  width="24"
  height="24"
  viewBox="0 0 24 24"
  xmlns="http://www.w3.org/2000/svg"
  fill="none"
  stroke="currentColor"
  stroke-width="2"
  stroke-linecap="round"
  stroke-linejoin="round"
>
  <path d="M13 5a1 1 0 1 0 0-2 1 1 0 0 0 0 2z" />
  <path d="M4 17l5 1 .75-1.5" />
  <path d="M15 21v-4l-4-3 1-6" />
  <path d="M7 12V9l5-1 3 3 3 1" />
</svg>
